!!!!SEGMENT: pl-wtm--r-1044_kurpinski-karol-kazimierz--suite-de-pas-de-trois.krn
!!!id: 18xx:2169
!!!COM: Kurpiński, Karol Kazimierz
!!!COM-rism: pe30018952
!!!CDT: 1785/03/06-1857/09/18
!!!CNT: Polish
!!!OTL: Suite de pas de trois
!!!PDT:
!!!SMS-siglum: PL-Wtm
!!!SMS-shelfmark: R 1044
!!!NIFC-rismID: 1001088027
!!!URL-scan: http://repozytorium.nifc.pl/skany/pl-wtm-nut--r1044
!!!ONB-nifc:
!!!OMD: Allo:
!!!SMS-variant:
!!!SMS-altvar:
**kern	**dynam
*I"[Violino]	*
*I'[vl]	*
*clefG2	*
*k[e-b-]	*
*M6/8	*
*>[A,B,B1,B,B2,C,D,D,E,F,G,G,H,I,I,J]	*
*>A	*
32qqgg/LLL	p
!LO:TX:t=P:problem:all\right, middle, left:global	!
32qqaa/JJJ	.
8bb-X\	.
=1	=1
4dd\	.
8ddd\	.
4dd\	.
32qqgg/LLL	.
32qqaa/JJJ	.
8bb-X\ 8gg\	.
=2	=2
16gg\LL	.
16gg\	.
16gg\	.
16gg\	.
16gg\	.
16gg\JJ	.
8gg'\L	.
8ff'\	.
8ee-X'\J	.
=3	=3
*tremolo	*
16dd\LL	.
16dd\	.
16dd\	.
16dd\	.
16dd\	.
16dd\JJ	.
*Xtremolo	*
8dd'\L	.
8cc'\	.
8b-X'\J	.
=4	=4
32qqcc/LLL	.
32qqb-/JJJ	.
4a\	.
8dd\	.
4d/	.
32qqgg/LLL	.
32qqaa/JJJ	.
8bb-X\	.
!!LO:LB:g=original
=5	=5
4dd\	.
8ddd\	.
4dd\	.
32qqgg/LLL	.
32qqaa/JJJ	.
8bb-X\	.
=6	=6
*tremolo	*
16gg\LL	.
16gg\	.
16gg\	.
16gg\	.
16gg\	.
16gg\JJ	.
*Xtremolo	*
8gg'\L	.
8aa'\	.
!LO:TX:t=P:problem:wykreślony takt	!
!LO:TX:t=P:problem:8bb- poprawione na 8gg	!
8gg'\J	.
=7	=7
*tremolo	*
16ff\LL	.
16ff\	.
16ff\	.
16ff\	.
16ff\	.
16ff\JJ	.
*Xtremolo	*
8een'\L	.
8ff'\	.
8ee'\J	.
=8	=8
*2\right	*
*tremolo	*
16dd\LL	>
16dd\	.
16dd\	.
16dd\	.
16dd\	.
16dd\	.
16dd\	.
16dd\	.
16dd\	.
16dd\	.
16dd\	.
16dd\JJ	.
=9	=9
16dd\LL	pp
16dd\	.
16dd\	.
16dd\	.
16dd\	.
16dd\	.
16dd\	.
16dd\	.
16dd\	.
16dd\	.
16dd\	.
16dd\JJ	.
*Xtremolo	*
=10	=10
4.ddd;\	.
4r;	.
!!LO:LB:g=original
32qqgg/LLL	.
32qqaa/JJJ	.
8bb-\	.
=11	=11
4dd\	.
8ddd\	.
4dd\	.
32qqgg/LLL	.
32qqaa/JJJ	.
8bb-\	.
=12	=12
*tremolo	*
16gg\LL	.
16gg\	.
16gg\	.
16gg\	.
16gg\	.
16gg\JJ	.
*Xtremolo	*
8gg'\L	.
8ff'\	.
8ee-'\J	.
=13	=13
*tremolo	*
16dd\LL	.
16dd\	.
16dd\	.
16dd\	.
16dd\	.
16dd\JJ	.
*Xtremolo	*
8dd'\L	.
8cc'\	.
8b-'\J	.
=14	=14
32qqcc/LLL	.
32qqb-/JJJ	.
4a\	.
8dd\	.
4d/	.
32qqgg/LLL	.
32qqaa/JJJ	.
8bb-X\	.
=15	=15
4dd\	.
8ddd\	.
4dd\	.
32qqgg/LLL	.
32qqaa/JJJ	.
8bb-\	.
*Xtremolo	*
!!LO:LB:g=original
=16	=16
*tremolo	*
16gg\LL	.
16gg\	.
16gg\	.
16gg\	.
16gg\	.
16gg\JJ	.
*Xtremolo	*
8gg'\L	.
8aa'\	.
8bb-'\J	.
=17	=17
*tremolo	*
16ccc\LL	.
16ccc\	.
16ccc\	.
16ccc\	.
16ccc\	.
16ccc\JJ	.
*Xtremolo	*
8ccc'\L	.
8ddd'\	.
8ccc'\J	.
=18	=18
*tremolo	*
(16bb-\LL	>
16bb-\	.
16bb-\	.
16bb-\	.
16bb-\	.
16bb-\	.
16bb-\	.
16bb-\	.
16bb-\	.
16bb-\	.
16bb-\	.
16bb-\JJ	.
=19	=19
16bb-\LL	p
16bb-\	.
16bb-\	.
16bb-\	.
16bb-\	.
16bb-\	.
16bb-\	.
16bb-\	.
16bb-\	.
16bb-\	.
16bb-\	.
16bb-\JJ	.
=20	=20
16bb-\LL	pp
16bb-\	.
16bb-\	.
16bb-\	.
16bb-\	.
16bb-\	.
16bb-\	.
16bb-\	.
16bb-\	.
16bb-\	.
16bb-\	.
16bb-\JJ)	.
=21!|:	=21!|:
*>B	*
16aa\LL	mf
16aa\	.
16aa\	.
16aa\	.
16aa\	.
16aa\JJ	.
*Xtremolo	*
8aa'\L	.
8bb-'\	.
8aa'\J	.
=22	=22
(16ff#X\LL	.
16gg\)	.
16gg'\	.
16gg'\	.
16gg'\	.
16gg'\JJ	.
8gg'\L	.
8ffn'\	.
8ee-'\J	.
!!LO:LB:g=original
=23	=23
(16ee-\LL	.
16dd\)	.
16dd'\	.
16dd'\	.
16dd'\	.
16dd'\JJ	.
8dd'\L	.
8cc#X'\	.
8ccn'\J	.
=24	=24
8b-'\L	.
8cc'\	.
8cc#X'\J	.
8dd\	.
8r	.
32qqgg/LLL	.
32qqaa/JJJ	.
8bb-\	.
=25	=25
*tremolo	*
16aa\LL	.
16aa\	.
16aa\	.
16aa\	.
16aa\	.
16aa\JJ	.
*Xtremolo	*
8aa'\L	.
8bb-'\	.
8aa'\J	.
=26	=26
(16ff#X\LL	.
16gg\)	.
16gg'\	.
16gg'\	.
16gg'\	.
16gg'\JJ	.
8gg'\L	.
8bb-'\	.
8ccc'\J	.
=27	=27
(4ccc#X^<\	.
8ddd\)	.
(8.eee-^<\L	.
16ddd\L	.
16aa\	.
16bb-\JJ)	.
!!LO:LB:g=original
=28||	=28||
!LO:TX:a:t=1ma	!
*>B1	*
[4.gg\	.
(4gg\]	.
8gg#X\)	.
=29:|!	=29:|!
!LO:TX:a:t=2da	!
*>B2	*
4gg\	.
8r	.
8r	.
8r	.
(16ffn\LL	f
32gg\L	.
32aa\JJJ	.
=30	=30
*>C	*
4bb-\)	.
32r	.
32ff\LLL	.
32gg\	.
32aa\JJJ	.
4bb-\	.
32r	.
32ff\LLL	.
32gg\	.
32aa\JJJ	.
=31	=31
16bb-'\LL	.
16aa'\	.
16gg'\	.
16ff'\	.
16ee-'\	.
16dd'\JJ	.
16cc\LL	.
16b-\	.
16a\	.
16g\	.
16f\	.
16e-\JJ	.
!!LO:LB:g=original
=32	=32
4d/	.
8r	.
8bb-'\L	.
8ff'\	.
8ddd'\J	.
=33	=33
8bb-'\L	.
8ff'\	.
8ddd'\J	.
*rep	*
8bb-'\L	.
8ff'\	.
8ddd'\J	.
*Xrep	*
=34	=34
4ccc\ 4a\	.
32r	.
(32ff\LLL	.
32gg\	.
64aa\L	.
64bb-\JJJJ	.
4ccc\)	.
32r	.
(32ff\LLL	.
32gg\	.
64aa\L	.
64bb-\JJJJ)	.
=35	=35
16ccc'\LL	.
16bb-'\	.
16aa'\	.
16gg'\	.
16ff'\	.
16een'\JJ	.
16ee-X\LL	.
16dd\	.
16cc\	.
16b-\	.
16a\	.
16g\JJ	.
=36	=36
4f/	.
8r	.
8ccc\L	.
8aa\	.
8eee-\J	.
!!LO:LB:g=original
=37	=37
8ccc\L	.
8aa\	.
8eee-\J	.
8ccc\L	.
8aa\	.
8ff\J	.
=38	=38
4bb-\ 4dd\ 4g\	.
32r	.
(32dd\LLL	.
32een\	.
32ff#X\JJJ	.
4gg\)	.
32r	.
(32dd\LLL	.
32een\	.
32ff#X\JJJ)	.
=39	=39
16gg'\LL	.
16aa'\	.
16bb-'\	.
16aa'\	.
16gg'\	.
16ff#X'\JJ	.
16gg\LL	.
16aa\	.
16bb-\	.
16aa\	.
16gg\	.
16ffn\JJ	.
=40	=40
4een\	.
8r	.
8ccc'\L	.
8gg'\	.
8eeen'\J	.
=41	=41
8ccc'\L	.
8gg'\	.
8eee-'\J	.
*rep	*
8ccc'\L	.
8gg'\	.
8eee-'\J	.
*Xrep	*
=42	=42
*tremolo	*
16fff\LL	.
16fff\	.
16ff\	.
16ff\	.
16gg\	.
16gg\JJ	.
16aa\LL	.
16aa\	.
16bb-\	.
16bb-\	.
16ccc\	.
16ccc\JJ	.
=43	=43
16ddd\LL	.
16ddd\	.
16aa\	.
16aa\	.
16bb-\	.
16bb-\JJ	.
16gg\LL	.
16gg\	.
16bb-\	.
16bb-\	.
16een\	.
16ee\JJ	.
*Xtremolo	*
=44	=44
8ff\L	.
16ff\L	.
16ff\	.
16gg\	.
16gg\JJ	.
16aa\LL	.
16aa\	.
16bb-\	.
16bb-\	.
16ccc\	.
16ccc\JJ	.
=45	=45
*tremolo	*
16ddd\LL	.
16ddd\	.
16aa\	.
16aa\	.
16bb-\	.
16bb-\JJ	.
16gg\LL	.
16gg\	.
16bb-\	.
16bb-\	.
16een\	.
16ee\JJ	.
*Xtremolo	*
=46	=46
4ff\	.
8fff\	.
4ff\	.
8ff\	.
=47	=47
4f/	.
8fff\	.
4ff\	.
8ff\	.
!!LO:LB:g=original
=48	=48
4f/	.
8ff\	.
4f/	.
8ff\	.
=49	=49
8f/	.
!	!LO:DY:rj
(8f/L	p
8g-X/J	.
8gn/L	.
8a-X/	.
8an/J)	.
=50	=50
!LO:TX:b:t=dolce	!
(2.b-\	.
=51	=51
([4.dd\)	.
4dd\]	.
8ff\)	.
=52	=52
([4.ff\	.
4ff\]	.
8ee-\)	.
=53	=53
2.cc\	.
=54	=54
([4.dd\	.
4dd\]	.
8cc\)	.
!!LO:LB:g=original
=55	=55
([4.b-\	.
8b-\L]	.
8a\	.
8g\J)	.
=56	=56
[2.cc\	.
=57	=57
8cc\]	.
8f/L	.
8f/J	.
8f/L	.
16qqa/	.
8g/	.
8f/J	.
=58	=58
(2.b-\	.
=59	=59
[4.dd\	.
4dd\]	.
8ff#X\)	.
=60	=60
(4.gg\	.
4aa\	<
8bb-\)	[[
=61	=61
([4.bb-\	>
8bb-\L]	]
8aa\	.
8gg\J)	.
!!LO:LB:g=original
=62	=62
[4.ff\	.
8ff\L]	.
8dd'\	.
8b-'\J	.
=63	=63
(4een\	.
8ff\)	.
(4ee-X\	.
!LO:TX:b:t=Volti	!
8cc\)	.
!!LO:PB:g=original
=64|:	=64|:
*>D	*
8qqbb-/	.
8b-\	.
8r	.
(32b-\LLL	.
32cc\	.
32dd\	.
32ee-\JJJ	.
8ff\)	.
8r	.
(32bb-\LLL	.
32ccc\	.
32ddd\	.
32eee-\JJJ	.
=65	=65
8fff\)	.
8r	.
(32b-\LLL	.
32cc\	.
32dd\	.
32ee-\JJJ	.
8.ff\L)	.
16gg'\L	.
16aa'\	.
16bb-'\JJ	.
=66	=66
4ccc^<\	.
16aa'\LL	.
16ccc'\JJ	.
4fff^<\	.
16aa'\LL	.
16ccc'\JJ	.
=67	=67
8ggg-X'\L	.
8fff'\	.
8eeen'\J	.
8eee-X'\L	.
8ccc'\	.
8aa'\J	.
=68:|	=68:|
*>E	*
8bb-\L	.
(16een\L	.
16ff\)	.
(16ee\	.
16ff\JJ)	.
(16gg\LL	.
16ff\)	.
(16een\	.
16ff\)	.
(16ee\	.
16ff\JJ)	.
=69	=69
(16gg\LL	.
16ff\)	.
(16een\	.
16ff\)	.
(16ee\	.
16ff\JJ)	.
*rep	*
(16gg\LL	.
16ff\)	.
(16ee\	.
16ff\)	.
(16ee\	.
16ff\JJ)	.
*Xrep	*
=70	=70
(8.ccc\L	.
16bb-\L	.
16aa\	.
16bb-\JJ)	.
*rep	*
(8.ccc\L	.
16bb-\L	.
16aa\	.
16bb-\JJ)	.
*Xrep	*
=71	=71
(8ccc\L	.
8bb-\)	.
8aa'\J	.
(8ccc\L	.
8bb-\)	.
8gg'\J	.
=72	=72
(8gg\L	.
8ff\)	.
8dd'\J	.
*rep	*
(8gg\L	.
8ff\)	.
8dd'\J	.
*Xrep	*
!!LO:LB:g=original
=73	=73
(8ff\L	.
8ee-\)	.
8cc'\J	.
*rep	*
(8ff\L	.
8ee-\)	.
8cc'\J	.
*Xrep	*
=74	=74
(8gg\L	.
8ff\)	.
8dd'\J	.
(8ccc\L	.
8bb-\)	.
8gg'\J	.
=75	=75
(8gg\L	.
8ff\)	.
8dd'\J	.
(8ff\L	.
8ee-\)	.
8cc'\J	.
=76	=76
(8gg\L	.
8ff\)	.
8dd'\J	.
(8ccc\L	.
8bb-\)	.
8gg'\J	.
=77	=77
(8gg\L	.
8ff\)	.
8dd'\J	.
(8ff\L	.
8ee-\)	.
8cc'\J	.
=78	=78
8b-\	.
8r	.
8ddd\	p
4dd\	.
8ddd\	.
=79	=79
4dd\	.
8ccc\	.
4dd\	.
8ccc\	.
!!LO:LB:g=original
=80	=80
4dd\	.
16bb-\LL	.
16bb-\JJ	.
4dd\	.
16bb-\LL	.
16bb-\JJ	.
=81	=81
8.dd\L	.
16aa\L	.
16aa\	.
16aa\JJ	.
8.dd\L	.
16aa\L	.
16aa\	.
16aa\JJ	.
=82	=82
4gg\	.
8r	.
8r	.
8r	.
16qqgg/LL	p
16qqaa/JJ	.
8bb-\	.
=83	=83
4dd\	.
8ddd\	.
4dd\	.
16qqgg/LL	.
16qqaa/JJ	.
8bb-\	.
=84	=84
*tremolo	*
16gg\LL	.
16gg\	.
16gg\	.
16gg\	.
16gg\	.
16gg\JJ	.
*Xtremolo	*
8gg'\L	.
8ff'\	.
8ee-'\J	.
=85	=85
*tremolo	*
16dd\LL	.
16dd\	.
16dd\	.
16dd\	.
16dd\	.
16dd\JJ	.
*Xtremolo	*
8dd'\L	.
8cc'\	.
8b-'\J	.
!!LO:LB:g=original
=86	=86
16qqcc/LL	.
16qqb-/JJ	.
4a\	.
8dd\	f
4d/	.
16qqgg/LL	p
16qqaa/JJ	.
8bb-X\	.
=87	=87
4dd\	.
8ddd\	.
4dd\	.
8bb-\	.
=88	=88
*tremolo	*
16gg\LL	.
16gg\	.
16gg\	.
16gg\	.
16gg\	.
16gg\JJ	.
*Xtremolo	*
8gg\L	.
8bb-\	.
8ccc\J	.
=89	=89
(4ccc#X^<\	.
8ddd\)	.
8.eee-^<\L	.
16ddd\L	.
16aa\	.
16bb-\JJ	.
=90	=90
4.gg\	.
8r	.
8r	.
8d/	.
=91	=91
!LO:TX:a:t=Corno	!
4.d/	.
4bn\	.
8g\	.
=92	=92
4.d/	.
4g/	.
8bn/	.
!!LO:LB:g=original
=93	=93
4dd\	.
8bn\	.
4g\	.
8b\	.
=94	=94
4a\	.
8dd\	.
4d/	.
8dd\	.
=95	=95
4.d/	.
4bn/	.
8g/	.
=96	=96
4.d/	.
4g/	.
8b-/	.
=97	=97
4dd\	.
8bn\	.
8a\L	.
8b\	.
8a\J	.
=98	=98
4g/	.
8r	.
8r	.
8r	.
16qqgg/LL	.
16qqaa/JJ	.
8bb-X\	.
=99	=99
4dd\	.
8ddd\	.
4dd\	.
16qqgg/LL	.
16qqaa/JJ	.
8bb-\	.
!!LO:LB:g=original
=100	=100
*tremolo	*
16gg\LL	.
16gg\	.
16gg\	.
16gg\	.
16gg\	.
16gg\JJ	.
*Xtremolo	*
8gg\L	.
8ff\	.
8ee-\J	.
=101	=101
*tremolo	*
16dd\LL	.
16dd\	.
16dd\	.
16dd\	.
16dd\	.
16dd\JJ	.
*Xtremolo	*
8dd\L	.
8cc\	.
8b-\J	.
=102	=102
16qqcc/LL	.
16qqb-/JJ	.
4a\	.
8dd\	.
4d/	.
16qqgg/LL	.
16qqaa/JJ	.
8bb-\	.
=103	=103
4dd\	.
8ddd\	.
4dd\	.
16qqgg/LL	.
16qqaa/JJ	.
8bb-\	.
=104	=104
*tremolo	*
16gg\LL	.
16gg\	.
16gg\	.
16gg\	.
16gg\	.
16gg\JJ	.
*Xtremolo	*
16qqaa/	.
8gg'\L	.
8ff'\	.
8ee-'\J	.
=105	=105
8dd'\L	.
(8ee-^<\	.
8dd\J)	.
8cc'\L	.
8a'\	.
8b-'\J	.
=106	=106
4g/	.
8r	.
*tremolo	*
16g/LL	p
16g/	.
16g/	.
16g/	.
16g/	.
16g/JJ	.
*Xtremolo	*
=107	=107
*>F	*
*k[f#bn]	*
!LO:SIC:o:v:t=nie wiadomo skąd powtórzenie przed codą	!
!LO:SIC:o:s:v:t=znaki: brak en	!
!LO:TX:a:t=Coda	!
8g'/L	.
8d'/	.
8b'/J	.
*rep	*
8g'/L	.
8d'/	.
8b'/J	.
*Xrep	*
=108	=108
8g/	.
8r	.
(32gg\LLL	.
32aa\	.
32bb\	.
32ccc\JJJ	.
8ddd\)	.
8r	.
(<32g/LLL	.
32a/	.
32b/	.
32cc/JJJ	.
=109	=109
8dd\)	.
8r	.
(32gg\LLL	.
32aa\	.
32bb\	.
32ccc\JJJ)	.
8ddd\	.
8r	.
(32ee\LLL	.
32dd\	.
32cc\	.
32b\JJJ)	.
=110	=110
4a/	.
8r	.
*tremolo	*
16a/LL	.
16a/	.
16a/	.
16a/	.
16a/	.
16a/JJ	.
*Xtremolo	*
=111	=111
8a'/L	.
8d'/	.
8cc'/J	.
*rep	*
8a'/L	.
8d'/	.
8cc'/J	.
*Xrep	*
=112	=112
8a/	.
8r	.
(<32a/LLL	.
32b/	.
32cc/	.
32dd/JJJ	.
8ee\)	.
8r	.
(32aa\LLL	.
32bb\	.
32ccc\	.
32ddd\JJJ)	.
=113	=113
8eee\	.
8r	.
!!LO:LB:g=original
(32a\LLL	.
32b\	.
32cc\	.
32dd\JJJ	.
8ee\)	.
8r	.
32cc\LLL	.
32b\	.
32a\	.
32g\JJJ	.
=114	=114
8f#/	.
8r	.
8r	.
*tremolo	*
16f#/LL	.
16f#/	.
16f#/	.
16f#/	.
16f#/	.
16f#/JJ	.
*Xtremolo	*
=115	=115
8f#/L	.
8d/	.
8a/J	.
*rep	*
8f#/L	.
8d/	.
8a/J	.
*Xrep	*
=116	=116
8f#/	.
8r	.
32ff#\LLL	.
32gg\	.
32aa\	.
32bb\JJJ	.
8ccc\	.
8r	.
32f#/LLL	.
32g/	.
32a/	.
32b/JJJ	.
=117	=117
8cc\	.
8r	.
(32ff#\LLL	.
32gg\	.
32aa\	.
32bb\JJJ	.
8ccc\)	.
8r	.
32dd\LLL	.
32cc\	.
32b\	.
32a\JJJ	.
!!LO:LB:g=original
=118|:	=118|:
*>G	*
8qqgg/	.
8g/	.
8r	.
(<32g/LLL	f
32a/	.
32b/	.
32cc/JJJ	.
8dd\)	.
8r	.
(32gg\LLL	.
32aa\	.
32bb\	.
32ccc\JJJ)	.
=119	=119
8ddd\	.
8r	.
32g/LLL	.
32a/	.
32b/	.
32cc/JJJ	.
8.dd\L	.
16ee'\L	.
16ff#'\	.
16gg'\JJ	.
=120	=120
4aa^<\	.
16ff#'\LL	.
16aa'\JJ	.
4ddd^<\	.
16ff#'\LL	.
16aa'\JJ	.
=121	=121
8eee-X'\L	.
8ddd'\	.
8ccc#X'\J	.
8cccn'\L	.
8aa'\	.
8ff#'\J	.
=122:|	=122:|
*>H	*
8gg'\L	.
(16cc#X\L	.
16dd\)	.
(16cc#\	.
16dd\JJ)	.
!!LO:LB:g=original
(16ee\LL	.
16dd\)	.
(16cc#X\	.
16dd\)	.
(16cc#\	.
16dd\JJ)	.
=123	=123
(16ee\LL	.
16dd\)	.
(16cc#X\	.
16dd\)	.
(16cc#\	.
16dd\JJ)	.
*rep	*
(16ee\LL	.
16dd\)	.
(16cc#\	.
16dd\)	.
(16cc#\	.
16dd\JJ)	.
*Xrep	*
=124	=124
(8.aa^<\L	.
16gg\L	.
16ff#\	.
16gg\JJ)	.
(8.aa^<\L	.
16gg\L	.
16ff#\	.
16gg\JJ)	.
=125	=125
(8.aa^<\L	.
16gg\L	.
16ff#\	.
16gg\JJ)	.
(8aa\L	.
8gg\)	.
8ee'\J	.
=126	=126
(8ee\L	.
8dd\	.
8b\J)	.
*rep	*
(8ee\L	.
8dd\	.
8b\J)	.
*Xrep	*
=127	=127
(8dd\L	.
8cc\)	.
8a'\J	.
*rep	*
(8dd\L	.
8cc\)	.
8a'\J	.
*Xrep	*
=128||	=128||
!LO:TX:a:t=Più moſso	!
8ee\L	.
8dd\	.
8b\J	.
(8aa\L	.
8gg\)	.
8ee'\J	.
!!LO:LB:g=original
=129	=129
(8ee\L	.
8dd\)	.
8b'\J	.
(8dd\L	.
8cc\)	.
8a'\J	.
=130	=130
(8ee\L	.
8dd\)	.
8b'\J	.
(8aa\L	.
8gg\)	.
8ee'\J	.
=131	=131
(8ee\L	.
8dd\	.
8b\J)	.
(8dd\L	.
8cc\)	.
8a'\J	.
=132|:	=132|:
*>I	*
8gg\ 8b\ 8d'\	.
(8bb\L 8dd\	.
8gg\J 8b\)	.
8ff#\ 8a\ 8d'\	.
(8aa\L 8cc\	.
8ff#\J 8a\)	.
=133	=133
8gg\ 8b\ 8d'\	.
(8bb\L 8dd\	.
8gg\J 8b\)	.
8ff#\ 8a\ 8d'\	.
(8aa\L 8cc\	.
8ff#\J 8a\)	.
=134:|	=134:|
*>J	*
*tremolo	*
16gg\LL 16b\	.
16gg\ 16b\	.
16ddd\	.
16ddd\	.
16bb\	.
16bb\JJ	.
16gg\LL	.
16gg\	.
16bb\	.
16bb\	.
16gg\	.
16gg\JJ	.
=135	=135
16dd\LL	.
16dd\	.
16gg\	.
16gg\	.
16dd\	.
16dd\JJ	.
16b\LL	.
16b\	.
16dd\	.
16dd\	.
16b\	.
16b\JJ	.
!!LO:LB:g=original
=136	=136
16g/LL	.
16g/	.
16d/	.
16d/	.
16B/	.
16B/JJ	.
*rep	*
16g/LL	.
16g/	.
16d/	.
16d/	.
16B/	.
16B/JJ	.
*Xrep	*
=137	=137
16g/LL	.
16g/	.
16d/	.
16d/	.
16B/	.
16B/JJ	.
*rep	*
16g/LL	.
16g/	.
16d/	.
16d/	.
16B/	.
16B/JJ	.
*Xrep	*
=138	=138
4G/	.
8r	.
4r	.
*Xtuplet	*
(56gg\LLL	.
56aa\	.
56bb\	.
56ccc\	.
56ddd\	.
56eee\	.
56fff#\JJJ)	.
=139	=139
4ggg\	.
8r	.
8r	.
8.r	.
16g/ 16B/	.
=140	=140
2.g/ 2.B;/	.
==;	==
*-	*-
!!!RDF**kern: > = above
!!!RDF**kern: < = below
!!!RDF**dynam: > = dim
!!!EED: Leszek Kubiak
!!!EST: 2021-05-31
!!!ENC: Katarzyna Serwa
!!!END: 2021-05-15
